assets/Baby symbol/Flat/baby_symbol_flat.svg

<svg width="32" height="32" viewBox="0 0 32 32" fill="none" xmlns="http://www.w3.org/2000/svg">
<path d="M2 6C2 3.79086 3.79086 2 6 2H26C28.2091 2 30 3.79086 30 6V26C30 28.2091 28.2091 30 26 30H6C3.79086 30 2 28.2091 2 26V6Z" fill="#00A6ED"/>
<path d="M12.9014 23.5989C12.8125 23.5018 12.8143 23.3523 12.9054 23.2572L13.1714 22.9797C13.3624 22.7803 13.3557 22.4638 13.1563 22.2727L12.0734 21.2349C11.874 21.0438 11.5575 21.0505 11.3664 21.2499L10.7765 21.8654C9.95649 22.7211 9.94083 24.0662 10.7407 24.9408L12.4526 26.8124C12.9185 27.3218 13.7092 27.3571 14.2186 26.8912C14.728 26.4252 14.7633 25.6346 14.2973 25.1251L12.9014 23.5989Z" fill="white"/>
<path d="M19.0621 23.5989C19.151 23.5018 19.1492 23.3523 19.0581 23.2572L18.7921 22.9797C18.6011 22.7803 18.6078 22.4638 18.8072 22.2727L19.8901 21.2349C20.0895 21.0438 20.406 21.0505 20.5971 21.2499L21.187 21.8654C22.007 22.7211 22.0227 24.0662 21.2228 24.9408L19.5109 26.8124C19.045 27.3218 18.2543 27.3571 17.7449 26.8912C17.2355 26.4252 17.2002 25.6346 17.6662 25.1251L19.0621 23.5989Z" fill="white"/>
<path d="M16 12C17.933 12 19.5 10.433 19.5 8.5C19.5 6.567 17.933 5 16 5C14.067 5 12.5 6.567 12.5 8.5C12.5 10.433 14.067 12 16 12Z" fill="white"/>
<path d="M12.7439 13.2929C12.9314 13.1054 13.1858 13 13.451 13H18.549C18.8142 13 19.0686 13.1054 19.2561 13.2929L21.0343 15.0711L22.595 13.5104L22.6098 13.5253C22.7696 13.4171 22.9623 13.3539 23.1698 13.3539C23.7221 13.3539 24.1698 13.8016 24.1698 14.3539C24.1698 14.5614 24.1066 14.7541 23.9984 14.9139L24.0092 14.9246L23.929 15.0048C23.8957 15.0436 23.8595 15.0798 23.8207 15.113L21.7414 17.1924C21.3509 17.5829 20.7177 17.5829 20.3272 17.1924L19 15.8652V17.5C19 17.7761 18.7761 18 18.5 18H13.5C13.2239 18 13 17.7761 13 17.5V15.8652L11.6728 17.1924C11.2823 17.5829 10.6491 17.5829 10.2586 17.1924L8.17927 15.113C8.1405 15.0798 8.10431 15.0436 8.07104 15.0048L7.99083 14.9246L8.00157 14.9139C7.89339 14.7541 7.8302 14.5614 7.8302 14.3539C7.8302 13.8016 8.27792 13.3539 8.8302 13.3539C9.03768 13.3539 9.23041 13.4171 9.39018 13.5253L9.40504 13.5104L10.9657 15.0711L12.7439 13.2929Z" fill="white"/>
<path d="M20 19.5C20 19.2239 19.7761 19 19.5 19H12.5C12.2239 19 12 19.2239 12 19.5V19.7929C12 19.9255 12.0527 20.0527 12.1464 20.1464L13.7071 21.7071C13.8946 21.8946 14.149 22 14.4142 22H17.5858C17.851 22 18.1054 21.8946 18.2929 21.7071L19.8536 20.1464C19.9473 20.0527 20 19.9255 20 19.7929V19.5Z" fill="white"/>
</svg>

<svg xmlns="http://www.w3.org/2000/svg" width="32" height="32" fill="none"><path fill="#00A6ED" d="M2 6a4 4 0 0 1 4-4h20a4 4 0 0 1 4 4v20a4 4 0 0 1-4 4H6a4 4 0 0 1-4-4V6Z"/><path fill="#fff" d="M12.901 23.599a.25.25 0 0 1 .004-.342l.266-.277a.5.5 0 0 0-.015-.707l-1.083-1.038a.5.5 0 0 0-.707.015l-.59.615a2.25 2.25 0 0 0-.035 3.076l1.712 1.871a1.25 1.25 0 1 0 1.844-1.687L12.901 23.6ZM19.062 23.599a.25.25 0 0 0-.004-.342l-.266-.277a.5.5 0 0 1 .015-.707l1.083-1.038a.5.5 0 0 1 .707.015l.59.615c.82.856.836 2.201.036 3.076l-1.712 1.871a1.25 1.25 0 1 1-1.845-1.687l1.396-1.526ZM16 12a3.5 3.5 0 1 0 0-7 3.5 3.5 0 0 0 0 7ZM12.744 13.293A1 1 0 0 1 13.45 13h5.098a1 1 0 0 1 .707.293l1.778 1.778 1.561-1.56.015.014a1 1 0 0 1 1.389 1.389l.01.01-.08.08a.997.997 0 0 1-.108.109l-2.08 2.08a1 1 0 0 1-1.414 0L19 15.864V17.5a.5.5 0 0 1-.5.5h-5a.5.5 0 0 1-.5-.5v-1.635l-1.327 1.327a1 1 0 0 1-1.414 0l-2.08-2.079a.996.996 0 0 1-.108-.108l-.08-.08.01-.011a1 1 0 0 1 1.389-1.389l.015-.015 1.56 1.561 1.779-1.778ZM20 19.5a.5.5 0 0 0-.5-.5h-7a.5.5 0 0 0-.5.5v.293a.5.5 0 0 0 .146.353l1.561 1.561a1 1 0 0 0 .707.293h3.172a1 1 0 0 0 .707-.293l1.56-1.56a.5.5 0 0 0 .147-.354V19.5Z"/></svg>
